images/brands/rho.svg

<svg fill="none" height="180" viewBox="0 0 520 180" width="520" xmlns="http://www.w3.org/2000/svg" xmlns:xlink="http://www.w3.org/1999/xlink"><clipPath id="a"><path d="m168 50h183v79h-183z"/></clipPath><g clip-path="url(#a)"><path d="m222.078 71.8628c0-18.0965-10.048-21.6178-27.404-21.6178h-26.613v77.469h12.789v-34.3558h13.062l16.534 34.3558h14.494l-18.635-36.1012c6.151-1.8066 15.773-6.7058 15.773-19.75zm-12.789 0c0 12.0337-3.745 17.6679-11.784 17.6679h-16.655v-35.3969h13.793c10.231 0 14.616 5.2666 14.616 17.6372v.0918zm57.519-.8267c-4.111-.0613-8.13.9492-11.723 2.9395s-6.577 4.8992-8.708 8.4206v-32.1512h-12.728v77.469h12.728v-34.907c0-6.767 6.485-16.6267 16.686-16.6267 9.317 0 11.083 5.236 11.083 15.0651v36.4686h12.85v-34.5395c0-14.9121-6.699-22.1384-20.188-22.1384zm56.331 0c-13.763 0-27.648 8.9411-27.648 28.8748 0 19.9341 13.885 28.8751 27.648 28.8751s27.648-8.727 27.648-28.661c0-19.9335-13.915-29.0889-27.648-29.0889zm14.129 28.8442c0 18.0047-1.949 25.5677-14.159 25.5677-9.957.092-14.129-3.46-14.129-25.353 0-18.0357 1.979-25.5682 14.159-25.5682 9.957-.0919 14.129 3.4294 14.129 25.5682z" fill="#000"/></g></svg>

<svg width="520" height="180" viewBox="0 0 520 180" fill="none" xmlns="http://www.w3.org/2000/svg">
<g clip-path="url(#clip0_248_4924)">
<path d="M222.078 71.8628C222.078 53.7663 212.03 50.245 194.674 50.245H168.061V127.714H180.85V93.3582H193.912L210.446 127.714H224.94L206.305 91.6128C212.456 89.8062 222.078 84.907 222.078 71.8628ZM209.289 71.8628C209.289 83.8965 205.544 89.5307 197.505 89.5307H180.85V54.1338H194.643C204.874 54.1338 209.259 59.4004 209.259 71.771V71.8628H209.289ZM266.808 71.0361C262.697 70.9748 258.678 71.9853 255.085 73.9756C251.492 75.9659 248.508 78.8748 246.377 82.3962V50.245H233.649V127.714H246.377V92.807C246.377 86.04 252.862 76.1803 263.063 76.1803C272.38 76.1803 274.146 81.4163 274.146 91.2454V127.714H286.996V93.1745C286.996 78.2624 280.297 71.0361 266.808 71.0361ZM323.139 71.0361C309.376 71.0361 295.491 79.9772 295.491 99.9109C295.491 119.845 309.376 128.786 323.139 128.786C336.902 128.786 350.787 120.059 350.787 100.125C350.787 80.1915 336.872 71.0361 323.139 71.0361ZM337.268 99.8803C337.268 117.885 335.319 125.448 323.109 125.448C313.152 125.54 308.98 121.988 308.98 100.095C308.98 82.0593 310.959 74.5268 323.139 74.5268C333.096 74.4349 337.268 77.9562 337.268 100.095V99.8803Z" fill="black"/>
</g>
<defs>
<clipPath id="clip0_248_4924">
<rect width="183" height="79" fill="white" transform="translate(168 50)"/>
</clipPath>
</defs>
</svg>
